icons/Emailicons.svg

<svg width="16" height="16" viewBox="0 0 16 16" fill="currentColor" xmlns="http://www.w3.org/2000/svg">
<path d="M13.1765 13.5333H2.82353C1.2549 13.5333 0 12.2753 0 10.7028V5.2305C0 3.658 1.2549 2.39999 2.82353 2.39999H11.1059C11.2314 2.39999 11.3569 2.52579 11.3569 2.65159C11.3569 2.77739 11.2314 2.90319 11.1059 2.90319H2.82353C1.50588 2.90319 0.501961 3.9725 0.501961 5.2305V10.7028C0.501961 12.0237 1.56863 13.0301 2.82353 13.0301H13.1765C14.4941 13.0301 15.498 11.9608 15.498 10.7028V5.2305C15.498 3.9096 14.4314 2.90319 13.1765 2.90319C13.051 2.90319 12.9255 2.77739 12.9255 2.65159C12.9255 2.52579 13.051 2.39999 13.1765 2.39999C14.7451 2.39999 16 3.658 16 5.2305V10.7028C16 12.2753 14.7451 13.5333 13.1765 13.5333Z" fill="#3D3D3D"/>
<path d="M8.0314 9.00452H7.90591C6.90199 8.50132 5.83532 7.93522 4.76865 7.43202C3.70199 6.86591 2.63532 6.36271 1.6314 5.79661C1.50591 5.73371 1.44316 5.60791 1.50591 5.48211C1.56865 5.35631 1.69414 5.29341 1.81963 5.35631C2.8863 5.92241 3.89022 6.42561 4.95689 6.99171C6.02355 7.49492 7.02747 8.06102 8.09414 8.56422C8.21963 8.62712 8.28238 8.75292 8.21963 8.87872C8.21963 8.94162 8.09414 9.00452 8.0314 9.00452Z" fill="#3D3D3D"/>
<path d="M8.03136 9.00452C7.96862 9.00452 7.84313 8.94162 7.84313 8.87872C7.78038 8.75292 7.84313 8.62712 7.96862 8.56422C8.97254 8.06102 10.0392 7.49492 11.1059 6.99171C12.1725 6.42561 13.2392 5.92241 14.2431 5.35631C14.3686 5.29341 14.4941 5.35631 14.5569 5.48211C14.6196 5.60791 14.5569 5.73371 14.4314 5.79661C13.3647 6.36271 12.3608 6.86591 11.2941 7.43202C10.2274 7.93522 9.22352 8.50132 8.15685 9.00452H8.03136V9.00452Z" fill="#3D3D3D"/>
<path d="M14.3686 10.0109H14.3059C13.5529 9.69643 12.7373 9.38193 11.9843 9.06743C11.2314 8.75293 10.4784 8.43843 9.66274 8.12393C9.53725 8.06103 9.47451 7.93523 9.53725 7.80943C9.6 7.68363 9.72549 7.62073 9.85098 7.68363C10.6039 7.99813 11.4196 8.31263 12.1725 8.62713C12.9255 8.94163 13.6784 9.25613 14.4941 9.57063C14.6196 9.63353 14.6823 9.75933 14.6196 9.88513C14.5569 9.94803 14.4314 10.0109 14.3686 10.0109V10.0109ZM1.50588 10.0109C1.44314 10.0109 1.31765 9.94803 1.31765 9.88513C1.2549 9.75933 1.31764 9.63353 1.44314 9.57063C2.19608 9.25613 3.01176 8.94163 3.7647 8.62713C4.51764 8.31263 5.33333 7.99813 6.08627 7.68363C6.21176 7.62073 6.33725 7.68363 6.4 7.80943C6.46274 7.93523 6.4 8.06103 6.27451 8.12393C5.52157 8.43843 4.70588 8.75293 3.95294 9.06743C3.2 9.38193 2.38431 9.69643 1.63137 10.0109H1.50588Z" fill="#3D3D3D"/>
</svg>

<svg xmlns="http://www.w3.org/2000/svg" width="16" height="16" fill="currentColor" class="si si-Emailicons" viewBox="0 0 16 16">
  <path d="M13.177 13.533H2.824A2.815 2.815 0 0 1 0 10.703V5.23A2.815 2.815 0 0 1 2.824 2.4h8.282c.125 0 .25.126.25.252 0 .125-.125.251-.25.251H2.824A2.32 2.32 0 0 0 .502 5.231v5.472a2.32 2.32 0 0 0 2.322 2.327h10.353a2.32 2.32 0 0 0 2.321-2.327V5.23a2.32 2.32 0 0 0-2.321-2.328c-.126 0-.252-.126-.252-.251 0-.126.126-.252.252-.252A2.815 2.815 0 0 1 16 5.23v5.473a2.815 2.815 0 0 1-2.823 2.83"/>
  <path d="M8.031 9.005h-.125c-1.004-.504-2.07-1.07-3.137-1.573-1.067-.566-2.134-1.07-3.138-1.635-.125-.063-.188-.19-.125-.315.063-.126.188-.189.314-.126 1.066.566 2.07 1.07 3.137 1.636 1.067.503 2.07 1.069 3.137 1.572.126.063.188.189.126.315 0 .063-.126.126-.189.126"/>
  <path d="M8.031 9.005c-.062 0-.188-.063-.188-.126-.063-.126 0-.252.126-.315 1.004-.503 2.07-1.07 3.137-1.572 1.066-.566 2.133-1.07 3.137-1.636.126-.063.251 0 .314.126s0 .252-.126.315c-1.066.566-2.07 1.069-3.137 1.635-1.067.503-2.07 1.07-3.137 1.573z"/>
  <path d="M14.369 10.01h-.063c-.753-.314-1.569-.628-2.322-.943a89 89 0 0 0-2.321-.943c-.126-.063-.188-.189-.126-.315.063-.125.188-.188.314-.125.753.314 1.569.629 2.321.943.753.315 1.506.63 2.322.944.126.063.188.188.126.314a.5.5 0 0 1-.251.126m-12.863 0c-.063 0-.188-.062-.188-.125-.063-.126 0-.251.125-.314.753-.315 1.569-.63 2.322-.944s1.568-.629 2.321-.943c.126-.063.251 0 .314.125.063.126 0 .252-.125.315-.753.314-1.57.629-2.322.943-.753.315-1.569.63-2.322.944z"/>
</svg>
